tools/download-figma-icons/icons/outlined-large/browser-settings.svg

<svg width="64" height="64" viewBox="0 0 64 64" fill="none" xmlns="http://www.w3.org/2000/svg">
<path fill-rule="evenodd" clip-rule="evenodd" d="M3 10.412V16H61V10.412C61 7.979 59.021 6 56.588 6H7.412C4.979 6 3 7.979 3 10.412ZM7.412 3H56.588C60.675 3 64 6.325 64 10.412V16V19V46.588C64 50.675 60.675 54 56.588 54C55.76 54 55.088 53.328 55.088 52.5C55.088 51.672 55.76 51 56.588 51C59.021 51 61 49.021 61 46.588V19H3V45.588C3 48.024 5.036 51 7.412 51C8.24 51 8.912 51.672 8.912 52.5C8.912 53.328 8.24 54 7.412 54C3.17 54 0 49.559 0 45.588V19V16V10.412C0 6.325 3.325 3 7.412 3ZM6 11C6 9.896 6.896 9 8 9C9.104 9 10 9.896 10 11C10 12.104 9.104 13 8 13C6.896 13 6 12.104 6 11ZM14 9C12.896 9 12 9.896 12 11C12 12.104 12.896 13 14 13C15.104 13 16 12.104 16 11C16 9.896 15.104 9 14 9ZM18 11C18 9.896 18.896 9 20 9C21.104 9 22 9.896 22 11C22 12.104 21.104 13 20 13C18.896 13 18 12.104 18 11ZM47.5674 35.9766L43.5984 38.2676L43.7904 39.3086C43.9314 40.0746 44.0004 40.7896 44.0004 41.4996C44.0004 42.2096 43.9314 42.9256 43.7904 43.6916L43.5984 44.7326L47.5674 47.0236C47.6894 47.0946 47.7314 47.2516 47.6614 47.3736L44.9184 52.1246C44.8744 52.2026 44.8084 52.2326 44.7614 52.2456C44.7154 52.2566 44.6434 52.2636 44.5674 52.2196L40.5954 49.9266L39.7904 50.6166C38.6724 51.5716 37.3974 52.3066 35.9994 52.8016L35.0004 53.1566V57.7436C35.0004 57.8846 34.8844 57.9996 34.7434 57.9996H29.2564C29.1154 57.9996 29.0004 57.8846 29.0004 57.7436V53.1566L28.0014 52.8016C26.6024 52.3066 25.3274 51.5716 24.2104 50.6166L23.4044 49.9266L19.4314 52.2196C19.3564 52.2636 19.2844 52.2556 19.2384 52.2456C19.1914 52.2326 19.1264 52.2026 19.0824 52.1256L16.3384 47.3726C16.2684 47.2506 16.3104 47.0936 16.4324 47.0236L20.4014 44.7326L20.2104 43.6916C20.0684 42.9256 20.0004 42.2096 20.0004 41.4996C20.0004 40.7896 20.0684 40.0746 20.2104 39.3086L20.4014 38.2676L16.4334 35.9766C16.3104 35.9066 16.2684 35.7486 16.3384 35.6256L19.0824 30.8746C19.1534 30.7526 19.3104 30.7106 19.4324 30.7796L23.4044 33.0736L24.2104 32.3836C25.3274 31.4296 26.6014 30.6936 28.0014 30.1986L29.0004 29.8446V25.2566C29.0004 25.1156 29.1154 24.9996 29.2564 24.9996H34.7434C34.8844 24.9996 35.0004 25.1156 35.0004 25.2566V29.8446L35.9994 30.1986C37.3984 30.6936 38.6724 31.4296 39.7904 32.3836L40.5954 33.0736L44.5674 30.7796C44.6874 30.7106 44.8464 30.7516 44.9184 30.8736L47.6614 35.6266C47.7314 35.7486 47.6894 35.9066 47.5674 35.9766ZM50.2584 34.1256L47.5154 29.3736C46.6184 27.8196 44.6234 27.2846 43.0674 28.1826L40.8974 29.4346C39.9994 28.7716 39.0294 28.2126 38.0004 27.7646V25.2566C38.0004 23.4606 36.5394 21.9996 34.7434 21.9996H29.2564C27.4614 21.9996 26.0004 23.4606 26.0004 25.2566V27.7646C24.9704 28.2126 24.0014 28.7716 23.1024 29.4346L20.9324 28.1826C19.3774 27.2846 17.3814 27.8186 16.4844 29.3736L13.7414 34.1246C12.8424 35.6796 13.3774 37.6756 14.9324 38.5746L17.0994 39.8256C17.0334 40.3946 17.0004 40.9546 17.0004 41.4996C17.0004 42.0456 17.0334 42.6056 17.0994 43.1746L14.9314 44.4256C13.3774 45.3246 12.8424 47.3206 13.7414 48.8736L16.4844 53.6266C16.9204 54.3796 17.6224 54.9176 18.4624 55.1436C19.3024 55.3686 20.1804 55.2516 20.9324 54.8176L23.1024 53.5646C24.0024 54.2286 24.9704 54.7876 26.0004 55.2356V57.7436C26.0004 59.5386 27.4614 60.9996 29.2564 60.9996H34.7434C36.5394 60.9996 38.0004 59.5386 38.0004 57.7436V55.2356C39.0294 54.7876 39.9984 54.2286 40.8974 53.5646L43.0664 54.8176C43.8184 55.2516 44.6974 55.3656 45.5384 55.1436C46.3784 54.9176 47.0804 54.3796 47.5154 53.6256L50.2584 48.8746C51.1574 47.3206 50.6234 45.3246 49.0684 44.4256L46.9004 43.1746C46.9664 42.6056 47.0004 42.0456 47.0004 41.4996C47.0004 40.9546 46.9664 40.3946 46.9004 39.8256L49.0684 38.5746C50.6234 37.6756 51.1574 35.6796 50.2584 34.1256ZM27.5 41.5C27.5 43.981 29.519 46 32 46C34.481 46 36.5 43.981 36.5 41.5C36.5 39.019 34.481 37 32 37C29.519 37 27.5 39.019 27.5 41.5ZM24.5 41.5C24.5 37.364 27.864 34 32 34C36.136 34 39.5 37.364 39.5 41.5C39.5 45.636 36.136 49 32 49C27.864 49 24.5 45.636 24.5 41.5Z" fill="black"/>
</svg>

<svg xmlns="http://www.w3.org/2000/svg" width="64" height="64" fill="none" viewBox="0 0 64 64"><path fill="currentColor" fill-rule="evenodd" d="M3 10.412V16h58v-5.588A4.417 4.417 0 0 0 56.588 6H7.412A4.417 4.417 0 0 0 3 10.412M7.412 3h49.176C60.675 3 64 6.325 64 10.412v36.176C64 50.675 60.675 54 56.588 54a1.5 1.5 0 0 1 0-3A4.417 4.417 0 0 0 61 46.588V19H3v26.588C3 48.024 5.036 51 7.412 51a1.5 1.5 0 0 1 0 3C3.17 54 0 49.559 0 45.588V10.412C0 6.325 3.325 3 7.412 3M6 11a2 2 0 1 1 4.001.001A2 2 0 0 1 6 11m8-2a2 2 0 1 0 .001 4.001A2 2 0 0 0 14 9m4 2a2 2 0 1 1 4.001.001A2 2 0 0 1 18 11m29.567 24.977-3.969 2.29.192 1.042c.141.766.21 1.48.21 2.19s-.069 1.427-.21 2.193l-.192 1.04 3.97 2.292a.26.26 0 0 1 .093.35l-2.743 4.75a.26.26 0 0 1-.351.095l-3.972-2.292-.805.69A12 12 0 0 1 36 52.802l-1 .355v4.587a.257.257 0 0 1-.257.256h-5.487a.256.256 0 0 1-.256-.256v-4.587l-.999-.355a11.9 11.9 0 0 1-3.79-2.185l-.807-.69-3.973 2.293a.26.26 0 0 1-.193.026.25.25 0 0 1-.156-.12l-2.744-4.753a.256.256 0 0 1 .094-.35l3.97-2.29-.192-1.041A12 12 0 0 1 20 41.5c0-.71.068-1.425.21-2.191l.191-1.041-3.968-2.291a.26.26 0 0 1-.095-.351l2.744-4.751a.26.26 0 0 1 .35-.095l3.972 2.294.806-.69a11.9 11.9 0 0 1 3.791-2.185l1-.354v-4.588c0-.141.114-.257.255-.257h5.487c.141 0 .257.116.257.257v4.588l1 .354a12 12 0 0 1 3.79 2.185l.805.69 3.972-2.294a.26.26 0 0 1 .351.094l2.743 4.753c.07.122.028.28-.094.35m2.691-1.851-2.743-4.752a3.26 3.26 0 0 0-4.448-1.191l-2.17 1.252A15 15 0 0 0 38 27.765v-2.508A3.26 3.26 0 0 0 34.743 22h-5.487A3.26 3.26 0 0 0 26 25.257v2.508a15 15 0 0 0-2.898 1.67l-2.17-1.252a3.26 3.26 0 0 0-4.448 1.19l-2.743 4.752a3.26 3.26 0 0 0 1.191 4.45l2.167 1.25A15 15 0 0 0 17 41.5q0 .82.1 1.675l-2.169 1.25a3.26 3.26 0 0 0-1.19 4.449l2.743 4.753a3.24 3.24 0 0 0 1.978 1.517c.84.225 1.718.108 2.47-.326l2.17-1.253q1.351.998 2.898 1.67v2.509A3.26 3.26 0 0 0 29.256 61h5.487A3.26 3.26 0 0 0 38 57.744v-2.508a14.8 14.8 0 0 0 2.897-1.671l2.17 1.253a3.255 3.255 0 0 0 4.448-1.192l2.743-4.751a3.26 3.26 0 0 0-1.19-4.45l-2.168-1.25q.1-.856.1-1.675t-.1-1.674l2.168-1.251a3.26 3.26 0 0 0 1.19-4.45M27.5 41.5c0 2.481 2.019 4.5 4.5 4.5s4.5-2.019 4.5-4.5S34.481 37 32 37a4.505 4.505 0 0 0-4.5 4.5m-3 0c0-4.136 3.364-7.5 7.5-7.5s7.5 3.364 7.5 7.5S36.136 49 32 49s-7.5-3.364-7.5-7.5" clip-rule="evenodd"/></svg>
